X: 060021
T: Flags of Dublin
S: S.Ennis
Z: B.Black
R: reel
M: 4/4
L: 1/8
K: D
B | A2 FA BcdB | (3ABA FDEB, B,2 | A2 FA Bcde |\
fdec d2 dB |
A2 FA BcdB | (3ABA FDEB, B,2 | A2 FA Bcde |\
fdec d3 ||
A | dcdf edef | gefd edBA | dcdf edef | gece d2 dA |
dcdf edef | gefd edBA | A2 FA Bcde | fdec d3 ||
